assets/icons/informations/checklist_rtl_outline.svg

<svg viewBox="0 0 24 24" xmlns="http://www.w3.org/2000/svg">
<path d="M16.525 8.17489L20.075 4.62489C20.275 4.42489 20.5083 4.32889 20.775 4.33689C21.0417 4.34555 21.275 4.44989 21.475 4.64989C21.6583 4.84989 21.75 5.08322 21.75 5.34989C21.75 5.61655 21.6583 5.84989 21.475 6.04989L17.25 10.2999C17.05 10.4999 16.8167 10.5999 16.55 10.5999C16.2833 10.5999 16.05 10.4999 15.85 10.2999L13.7 8.14989C13.5167 7.96655 13.425 7.73322 13.425 7.44989C13.425 7.16655 13.5167 6.93322 13.7 6.74989C13.8833 6.56655 14.1167 6.47489 14.4 6.47489C14.6833 6.47489 14.9167 6.56655 15.1 6.74989L16.525 8.17489ZM3 8.99989C2.71667 8.99989 2.47933 8.90389 2.288 8.71189C2.096 8.52055 2 8.28322 2 7.99989C2 7.71655 2.096 7.47889 2.288 7.28689C2.47933 7.09555 2.71667 6.99989 3 6.99989H10C10.2833 6.99989 10.521 7.09555 10.713 7.28689C10.9043 7.47889 11 7.71655 11 7.99989C11 8.28322 10.9043 8.52055 10.713 8.71189C10.521 8.90389 10.2833 8.99989 10 8.99989H3ZM17 17.3999L15.1 19.2999C14.9167 19.4832 14.6833 19.5749 14.4 19.5749C14.1167 19.5749 13.8833 19.4832 13.7 19.2999C13.5167 19.1166 13.425 18.8832 13.425 18.5999C13.425 18.3166 13.5167 18.0832 13.7 17.8999L15.6 15.9999L13.7 14.0999C13.5167 13.9166 13.425 13.6832 13.425 13.3999C13.425 13.1166 13.5167 12.8832 13.7 12.6999C13.8833 12.5166 14.1167 12.4249 14.4 12.4249C14.6833 12.4249 14.9167 12.5166 15.1 12.6999L17 14.5999L18.9 12.6999C19.0833 12.5166 19.3167 12.4249 19.6 12.4249C19.8833 12.4249 20.1167 12.5166 20.3 12.6999C20.4833 12.8832 20.575 13.1166 20.575 13.3999C20.575 13.6832 20.4833 13.9166 20.3 14.0999L18.4 15.9999L20.3 17.8999C20.4833 18.0832 20.575 18.3166 20.575 18.5999C20.575 18.8832 20.4833 19.1166 20.3 19.2999C20.1167 19.4832 19.8833 19.5749 19.6 19.5749C19.3167 19.5749 19.0833 19.4832 18.9 19.2999L17 17.3999ZM3 16.9999C2.71667 16.9999 2.47933 16.9039 2.288 16.7119C2.096 16.5206 2 16.2832 2 15.9999C2 15.7166 2.096 15.4789 2.288 15.2869C2.47933 15.0956 2.71667 14.9999 3 14.9999H10C10.2833 14.9999 10.521 15.0956 10.713 15.2869C10.9043 15.4789 11 15.7166 11 15.9999C11 16.2832 10.9043 16.5206 10.713 16.7119C10.521 16.9039 10.2833 16.9999 10 16.9999H3Z" fill="inherit"/>
</svg>

<svg viewBox="0 0 24 24" xmlns="http://www.w3.org/2000/svg"><path d="m16.5 8.2 3.6-3.6c.2-.2.4-.3.7-.3a1 1 0 0 1 1 1c0 .3-.1.5-.3.7l-4.3 4.3a1 1 0 0 1-1.3 0l-2.2-2.2a1 1 0 0 1-.3-.7c0-.2.1-.5.3-.7l.7-.2c.3 0 .5 0 .7.2l1.4 1.5ZM3 9a1 1 0 0 1-.7-.3A1 1 0 0 1 2 8c0-.3.1-.5.3-.7.2-.2.4-.3.7-.3h7c.3 0 .5.1.7.3.2.2.3.4.3.7 0 .3-.1.5-.3.7a1 1 0 0 1-.7.3H3Zm14 8.4-1.9 1.9a1 1 0 0 1-.7.3 1 1 0 0 1-.7-.3 1 1 0 0 1-.3-.7c0-.3.1-.5.3-.7l1.9-1.9-1.9-1.9a1 1 0 0 1-.3-.7c0-.3.1-.5.3-.7.2-.2.4-.3.7-.3.3 0 .5.1.7.3l1.9 1.9 1.9-1.9c.2-.2.4-.3.7-.3.3 0 .5.1.7.3.2.2.3.4.3.7 0 .3-.1.5-.3.7L18.4 16l1.9 1.9c.2.2.3.4.3.7 0 .3-.1.5-.3.7a1 1 0 0 1-.7.3 1 1 0 0 1-.7-.3L17 17.4ZM3 17a1 1 0 0 1-.7-.3A1 1 0 0 1 2 16c0-.3.1-.5.3-.7.2-.2.4-.3.7-.3h7c.3 0 .5.1.7.3.2.2.3.4.3.7 0 .3-.1.5-.3.7a1 1 0 0 1-.7.3H3Z" fill="inherit"/></svg>
